swiss/communes/0100.svg

<?xml version="1.0" encoding="UTF-8" standalone="no"?>
<!-- Created with Inkscape (http://www.inkscape.org/) -->
<svg
   xmlns:svg="http://www.w3.org/2000/svg"
   xmlns="http://www.w3.org/2000/svg"
   xmlns:xlink="http://www.w3.org/1999/xlink"
   version="1.0"
   width="190.7171"
   height="223.39532"
   id="svg2780">
  <defs
     id="defs2782" />
  <g
     transform="translate(-30.639132,-814.19995)"
     id="layer1">
    <path
       d="M 31.639132,815.19996 L 35.070348,959.36439 C 37.521211,1062.3389 214.47415,1062.3389 216.92502,959.36439 L 220.35624,815.19996 L 31.639132,815.19996 z"
       id="path3282"
       style="fill:#2963ce;fill-opacity:1;fill-rule:evenodd;stroke:#000000;stroke-width:2;stroke-linecap:butt;stroke-miterlimit:4;stroke-dashoffset:0;stroke-opacity:1" />
    <path
       d="M 49.317673,924.58802 C 60.976115,875.19683 84.626779,870.46766 92.109342,870.62241 C 97.823447,870.74058 98.230951,869.93994 100.12541,868.74801 C 104.58952,865.93935 113.58333,871.72675 119.60476,876.75246 C 122.9358,879.53267 128.00239,879.94268 127.98683,875.71148 C 127.96149,868.74556 131.89136,865.84586 134.91359,868.10112 C 136.54159,869.31596 139.3021,873.49574 141.73228,869.27815 C 142.69582,871.91871 147.03128,872.67433 148.33752,870.90635 C 149.58432,869.21879 153.39198,868.70575 154.83787,870.62777 C 157.07271,873.59856 161.96668,874.94833 166.69804,871.55572 C 178.47406,879.66007 192.67992,895.56147 198.90689,919.87226 C 221.11284,799.0607 27.507968,796.9092 49.317673,924.58802 z"
       id="path2561"
       style="fill:#ffffff;fill-opacity:1;fill-rule:evenodd;stroke:#000000;stroke-width:1px;stroke-linecap:butt;stroke-linejoin:round;stroke-opacity:1" />
    <path
       d="M 102.84419,854.2729 C 99.451681,856.28944 96.918309,862.06626 97.989876,867.38373"
       id="path2392"
       style="fill:none;fill-opacity:0.75;fill-rule:evenodd;stroke:#000000;stroke-width:0.99921256;stroke-linecap:round;stroke-linejoin:miter;stroke-miterlimit:4;stroke-dasharray:none;stroke-opacity:1" />
    <path
       d="M 113.69551,861.07813 C 113.67978,858.3427 112.39991,854.73461 110.49062,853.67899 C 109.05185,855.93798 107.55363,860.57051 107.04552,864.82504 L 103.6322,863.3103"
       id="path2394"
       style="fill:none;fill-opacity:0.75;fill-rule:evenodd;stroke:#000000;stroke-width:0.99921256;stroke-linecap:round;stroke-linejoin:round;stroke-miterlimit:4;stroke-dasharray:none;stroke-opacity:1" />
    <path
       d="M 120.0976,862.91975 C 134.97898,858.06154 123.93436,868.57824 125.17262,871.48914"
       id="path2396"
       style="fill:none;fill-opacity:0.75;fill-rule:evenodd;stroke:#000000;stroke-width:1px;stroke-linecap:round;stroke-linejoin:miter;stroke-opacity:1" />
    <path
       d="M 141.73228,869.81878 C 141.73228,867.77318 141.73228,863.97763 140.71834,860.00476 C 144.66451,861.94658 145.75972,867.83795 145.79579,871.68897"
       id="path2398"
       style="fill:none;fill-opacity:0.75;fill-rule:evenodd;stroke:#000000;stroke-width:1px;stroke-linecap:butt;stroke-linejoin:miter;stroke-opacity:1" />
    <path
       d="M 143.3179,858.66092 C 141.73228,859.00169 139.37998,859.59629 137.61001,860.4446"
       id="path2400"
       style="opacity:1;color:#000000;fill:none;fill-opacity:0.75;fill-rule:evenodd;stroke:#000000;stroke-width:1px;stroke-linecap:round;stroke-linejoin:miter;marker:none;marker-start:none;marker-mid:none;marker-end:none;stroke-miterlimit:4;stroke-dasharray:none;stroke-dashoffset:0;stroke-opacity:1;visibility:visible;display:inline;overflow:visible;enable-background:accumulate" />
    <path
       d="M 113.51469,859.59629 C 113.68229,860.36968 112.59862,860.87452 110.96409,861.43795 C 108.74314,862.20353 108.06254,862.30955 107.66382,860.82575 C 107.31154,859.5148 108.75389,859.13821 110.40144,859.04643 C 112.01629,858.95648 113.34348,858.80623 113.51469,859.59629 z"
       id="path2402"
       style="color:#000000;fill:#000000;fill-opacity:1;fill-rule:evenodd;stroke:none;stroke-width:1.1195447pt;stroke-linecap:butt;stroke-linejoin:round;marker:none;marker-start:none;marker-mid:none;marker-end:none;stroke-miterlimit:4;stroke-dashoffset:0;stroke-opacity:1;visibility:visible;display:inline;overflow:visible;enable-background:accumulate" />
    <path
       d="M 100.41586,866.88197 C 103.45482,866.0521 102.61537,859.3425 110.49062,853.67899"
       id="path3870"
       style="opacity:1;color:#000000;fill:none;fill-opacity:0.75;fill-rule:evenodd;stroke:#000000;stroke-width:0.99921256;stroke-linecap:round;stroke-linejoin:miter;marker:none;marker-start:none;marker-mid:none;marker-end:none;stroke-miterlimit:4;stroke-dasharray:none;stroke-dashoffset:0;stroke-opacity:1;visibility:visible;display:inline;overflow:visible;enable-background:accumulate" />
    <g
       transform="matrix(0.9330669,0,0,0.9330669,8.921579,48.144651)"
       id="g9371">
      <path
         d="M 135.26248,980.42113 C 144.55733,979.68085 142.97341,967.87412 147.99229,967.72075 C 152.88661,967.57119 159.44882,973.47404 161.77866,983.11553 C 164.13698,992.87487 158.04476,998.27959 151.96412,999.21258 C 145.76163,1000.1643 146.22075,994.95912 146.41826,993.1623 C 146.6293,991.24225 138.69305,992.18188 139.01304,1001.9491 C 139.33304,1011.7162 151.49481,1014.888 161.49616,1005.4598 C 171.56372,995.96919 168.28556,992.76666 168.428,983.01486 C 168.57047,973.26154 162.31079,957.70836 151.1388,951.01202 C 140.02563,944.35094 129.36428,946.13731 128.95035,957.47702 C 128.53632,968.81936 138.17555,974.15033 135.26248,980.42113 z"
         id="path10061"
         style="fill:#ffffff;fill-opacity:1;fill-rule:evenodd;stroke:#000000;stroke-width:1.07173455px;stroke-linecap:butt;stroke-linejoin:miter;stroke-opacity:1" />
      <use
         transform="matrix(-1,0,0,1,342.15345,0)"
         id="use9363"
         style="fill:#ffffff;stroke:#000000;stroke-width:1.07173467"
         x="0"
         y="0"
         width="248.03149"
         height="248.03149"
         xlink:href="#path10061" />
      <path
         d="M 171.07672,1028.8999 C 173.33633,1026.9785 180.04365,1020.8847 179.9762,1011.5178 C 179.90875,1002.0709 175.30216,1000.7172 175.3078,984.47382 C 175.31345,968.15033 182.50853,955.55553 182.56944,944.82864 C 182.6369,932.77117 173.45494,930.10977 171.07672,922.19092 C 168.6985,930.10977 159.51654,932.77117 159.584,944.82864 C 159.64491,955.55553 166.83999,968.15033 166.84564,984.47382 C 166.85128,1000.7172 162.24469,1002.0709 162.17724,1011.5178 C 162.10979,1020.8847 168.81711,1026.9785 171.07672,1028.8999 z"
         id="path9090"
         style="fill:#ffffff;fill-opacity:1;fill-rule:evenodd;stroke:#000000;stroke-width:1.07173455px;stroke-linecap:butt;stroke-linejoin:miter;stroke-opacity:1" />
      <rect
         width="28.553171"
         height="10.847712"
         ry="5.4238558"
         x="156.80014"
         y="980.04413"
         id="rect9358"
         style="color:#000000;fill:#ffffff;fill-opacity:1;fill-rule:evenodd;stroke:#000000;stroke-width:1.07173479px;stroke-linecap:butt;stroke-linejoin:miter;marker:none;marker-start:none;marker-mid:none;marker-end:none;stroke-miterlimit:4;stroke-dasharray:none;stroke-dashoffset:0;stroke-opacity:1;visibility:visible;display:inline;overflow:visible;enable-background:accumulate" />
    </g>
    <use
       transform="translate(-85.099845,0)"
       id="use9377"
       x="0"
       y="0"
       width="248.03149"
       height="248.03149"
       xlink:href="#g9371" />
  </g>
</svg>

<svg xmlns="http://www.w3.org/2000/svg" xmlns:xlink="http://www.w3.org/1999/xlink" version="1.0" width="190.717" height="223.395"><g transform="translate(-30.64 -814.2)"><path d="m31.64 815.2 3.43 144.164c2.451 102.975 179.404 102.975 181.855 0l3.431-144.164H31.64z" style="fill:#2963ce;fill-opacity:1;fill-rule:evenodd;stroke:#000;stroke-width:2;stroke-linecap:butt;stroke-miterlimit:4;stroke-dashoffset:0;stroke-opacity:1"/><path d="M49.318 924.588c11.658-49.391 35.309-54.12 42.791-53.966 5.714.119 6.122-.682 8.016-1.874 4.465-2.809 13.458 2.979 19.48 8.004 3.33 2.78 8.397 3.19 8.382-1.04-.026-6.966 3.904-9.866 6.927-7.61 1.628 1.214 4.388 5.394 6.818 1.176.964 2.64 5.3 3.396 6.606 1.628 1.246-1.687 5.054-2.2 6.5-.278 2.235 2.97 7.129 4.32 11.86.928 11.776 8.104 25.982 24.005 32.209 48.316 22.206-120.811-171.399-122.963-149.59 4.716z" style="fill:#fff;fill-opacity:1;fill-rule:evenodd;stroke:#000;stroke-width:1px;stroke-linecap:butt;stroke-linejoin:round;stroke-opacity:1"/><path d="M102.844 854.273c-3.392 2.016-5.926 7.793-4.854 13.11" style="fill:none;fill-opacity:.75;fill-rule:evenodd;stroke:#000;stroke-width:.99921256;stroke-linecap:round;stroke-linejoin:miter;stroke-miterlimit:4;stroke-dasharray:none;stroke-opacity:1"/><path d="M113.696 861.078c-.016-2.735-1.296-6.343-3.205-7.399-1.44 2.259-2.937 6.892-3.445 11.146l-3.414-1.515" style="fill:none;fill-opacity:.75;fill-rule:evenodd;stroke:#000;stroke-width:.99921256;stroke-linecap:round;stroke-linejoin:round;stroke-miterlimit:4;stroke-dasharray:none;stroke-opacity:1"/><path d="M120.098 862.92c14.881-4.858 3.836 5.658 5.075 8.57" style="fill:none;fill-opacity:.75;fill-rule:evenodd;stroke:#000;stroke-width:1px;stroke-linecap:round;stroke-linejoin:miter;stroke-opacity:1"/><path d="M141.732 869.819c0-2.046 0-5.841-1.014-9.814 3.947 1.942 5.042 7.833 5.078 11.684" style="fill:none;fill-opacity:.75;fill-rule:evenodd;stroke:#000;stroke-width:1px;stroke-linecap:butt;stroke-linejoin:miter;stroke-opacity:1"/><path d="M143.318 858.66c-1.586.342-3.938.936-5.708 1.785" style="opacity:1;color:#000;fill:none;fill-opacity:.75;fill-rule:evenodd;stroke:#000;stroke-width:1px;stroke-linecap:round;stroke-linejoin:miter;marker:none;marker-start:none;marker-mid:none;marker-end:none;stroke-miterlimit:4;stroke-dasharray:none;stroke-dashoffset:0;stroke-opacity:1;visibility:visible;display:inline;overflow:visible;enable-background:accumulate"/><path d="M113.515 859.596c.167.774-.916 1.279-2.55 1.842-2.222.766-2.902.872-3.301-.612-.352-1.311 1.09-1.688 2.737-1.78 1.615-.09 2.942-.24 3.114.55z" style="color:#000;fill:#000;fill-opacity:1;fill-rule:evenodd;stroke:none;stroke-width:1.1195447pt;stroke-linecap:butt;stroke-linejoin:round;marker:none;marker-start:none;marker-mid:none;marker-end:none;stroke-miterlimit:4;stroke-dashoffset:0;stroke-opacity:1;visibility:visible;display:inline;overflow:visible;enable-background:accumulate"/><path d="M100.416 866.882c3.039-.83 2.2-7.54 10.075-13.203" style="opacity:1;color:#000;fill:none;fill-opacity:.75;fill-rule:evenodd;stroke:#000;stroke-width:.99921256;stroke-linecap:round;stroke-linejoin:miter;marker:none;marker-start:none;marker-mid:none;marker-end:none;stroke-miterlimit:4;stroke-dasharray:none;stroke-dashoffset:0;stroke-opacity:1;visibility:visible;display:inline;overflow:visible;enable-background:accumulate"/><g transform="matrix(.93307 0 0 .93307 8.922 48.145)" id="b"><path d="M135.262 980.421c9.295-.74 7.711-12.547 12.73-12.7 4.895-.15 11.457 5.753 13.787 15.395 2.358 9.759-3.734 15.164-9.815 16.097-6.202.951-5.743-4.254-5.546-6.05.211-1.92-7.725-.981-7.405 8.786.32 9.767 12.482 12.939 22.483 3.51 10.068-9.49 6.79-12.692 6.932-22.444.142-9.753-6.117-25.307-17.29-32.003-11.112-6.661-21.774-4.875-22.188 6.465-.414 11.342 9.226 16.673 6.312 22.944z" id="a" style="fill:#fff;fill-opacity:1;fill-rule:evenodd;stroke:#000;stroke-width:1.07173455px;stroke-linecap:butt;stroke-linejoin:miter;stroke-opacity:1"/><use transform="matrix(-1 0 0 1 342.153 0)" style="fill:#fff;stroke:#000;stroke-width:1.07173467" width="248.031" height="248.031" xlink:href="#a"/><path d="M171.077 1028.9c2.26-1.922 8.967-8.015 8.9-17.382-.068-9.447-4.675-10.8-4.67-27.044.006-16.324 7.202-28.918 7.262-39.645.068-12.058-9.114-14.72-11.492-22.638-2.379 7.919-11.56 10.58-11.493 22.638.06 10.727 7.256 23.321 7.262 39.645.005 16.243-4.601 17.597-4.669 27.044-.067 9.367 6.64 15.46 8.9 17.382z" style="fill:#fff;fill-opacity:1;fill-rule:evenodd;stroke:#000;stroke-width:1.07173455px;stroke-linecap:butt;stroke-linejoin:miter;stroke-opacity:1"/><rect width="28.553" height="10.848" ry="5.424" x="156.8" y="980.044" style="color:#000;fill:#fff;fill-opacity:1;fill-rule:evenodd;stroke:#000;stroke-width:1.07173479px;stroke-linecap:butt;stroke-linejoin:miter;marker:none;marker-start:none;marker-mid:none;marker-end:none;stroke-miterlimit:4;stroke-dasharray:none;stroke-dashoffset:0;stroke-opacity:1;visibility:visible;display:inline;overflow:visible;enable-background:accumulate"/></g><use transform="translate(-85.1)" width="248.031" height="248.031" xlink:href="#b"/></g></svg>
